svg/color/dafi.svg

<?xml version="1.0" encoding="UTF-8" ?>
<!DOCTYPE svg PUBLIC "-//W3C//DTD SVG 1.1//EN" "http://www.w3.org/Graphics/SVG/1.1/DTD/svg11.dtd">
<svg width="250pt" height="250pt" viewBox="0 0 250 250" version="1.1" xmlns="http://www.w3.org/2000/svg">
<g id="#ffffffff">
<path fill="#ffffff" opacity="1.00" d=" M 0.00 0.00 L 250.00 0.00 L 250.00 250.00 L 0.00 250.00 L 0.00 0.00 M 152.41 65.97 C 152.35 76.62 152.42 87.27 152.39 97.92 C 140.24 90.23 124.82 88.02 111.05 92.22 C 96.50 96.49 84.25 107.73 78.64 121.81 C 75.19 130.07 74.43 139.26 75.56 148.09 C 77.93 164.92 89.55 179.99 105.09 186.79 C 118.52 192.84 134.65 192.59 147.76 185.82 C 159.99 179.71 169.25 168.20 172.97 155.08 C 176.10 145.02 174.42 134.38 175.03 124.05 C 174.89 107.72 175.14 91.41 174.91 75.08 C 174.78 70.79 175.84 66.12 173.93 62.12 C 170.88 57.47 164.67 59.04 160.01 58.81 C 156.06 58.58 152.16 61.89 152.41 65.97 Z" />
<path fill="#ffffff" opacity="1.00" d=" M 117.56 113.82 C 126.20 111.10 136.22 113.01 143.01 119.08 C 152.83 127.78 155.03 143.35 148.81 154.75 C 144.36 163.41 134.75 169.05 125.00 168.57 C 112.21 168.53 100.41 158.50 98.22 145.92 C 95.21 132.32 104.22 117.60 117.56 113.82 Z" />
</g>
<g id="#32353bff">
<path fill="#32353b" opacity="1.00" d=" M 152.41 65.97 C 152.16 61.89 156.06 58.58 160.01 58.81 C 164.67 59.04 170.88 57.47 173.93 62.12 C 175.84 66.12 174.78 70.79 174.91 75.08 C 175.14 91.41 174.89 107.72 175.03 124.05 C 174.42 134.38 176.10 145.02 172.97 155.08 C 169.25 168.20 159.99 179.71 147.76 185.82 C 134.65 192.59 118.52 192.84 105.09 186.79 C 89.55 179.99 77.93 164.92 75.56 148.09 C 74.43 139.26 75.19 130.07 78.64 121.81 C 84.25 107.73 96.50 96.49 111.05 92.22 C 124.82 88.02 140.24 90.23 152.39 97.92 C 152.42 87.27 152.35 76.62 152.41 65.97 M 117.56 113.82 C 104.22 117.60 95.21 132.32 98.22 145.92 C 100.41 158.50 112.21 168.53 125.00 168.57 C 134.75 169.05 144.36 163.41 148.81 154.75 C 155.03 143.35 152.83 127.78 143.01 119.08 C 136.22 113.01 126.20 111.10 117.56 113.82 Z" />
</g>
</svg>

<?xml version="1.0" encoding="utf-8"?>
<!-- Generator: Adobe Illustrator 26.0.3, SVG Export Plug-In . SVG Version: 6.00 Build 0)  -->
<svg version="1.1" id="Layer_1" xmlns="http://www.w3.org/2000/svg" xmlns:xlink="http://www.w3.org/1999/xlink" x="0px" y="0px"
	 viewBox="0 0 250 250" style="enable-background:new 0 0 250 250;" xml:space="preserve">
<style type="text/css">
	.st0{fill:#FFFFFF;}
	.st1{fill:#32353B;}
</style>
<circle class="st0" cx="125" cy="125.5" r="125"/>
<g id="_x23_ffffffff">
	<path class="st0" d="M117.6,113.8c8.6-2.7,18.7-0.8,25.4,5.3c9.8,8.7,12,24.3,5.8,35.7c-4.4,8.7-14.1,14.3-23.8,13.8
		c-12.8,0-24.6-10.1-26.8-22.7C95.2,132.3,104.2,117.6,117.6,113.8z"/>
</g>
<g id="_x23_32353bff">
	<path class="st1" d="M152.4,66c-0.2-4.1,3.6-7.4,7.6-7.2c4.7,0.2,10.9-1.3,13.9,3.3c1.9,4,0.9,8.7,1,13c0.2,16.3,0,32.6,0.1,49
		c-0.6,10.3,1.1,21-2.1,31c-3.7,13.1-13,24.6-25.2,30.7c-13.1,6.8-29.2,7-42.7,1c-15.5-6.8-27.2-21.9-29.5-38.7
		c-1.1-8.8-0.4-18,3.1-26.3c5.6-14.1,17.9-25.3,32.4-29.6c13.8-4.2,29.2-2,41.3,5.7C152.4,87.3,152.4,76.6,152.4,66 M117.6,113.8
		c-13.3,3.8-22.3,18.5-19.3,32.1c2.2,12.6,14,22.6,26.8,22.7c9.8,0.5,19.4-5.2,23.8-13.8c6.2-11.4,4-27-5.8-35.7
		C136.2,113,126.2,111.1,117.6,113.8z"/>
</g>
</svg>
